X:1
T:34
L:1/8
M:3/4
K:C
V:1 treble nm="Piano" snm="Pno."
V:1
 c2 B>A G2 | c2 G>A G2 | C2 CD EF | G6 | c2 B>A G2 | A2 G>F E2 | G3 F E2 | D6 | E3 F E2 | %9
 G2 E2 c2 | B4 G2 | A6 | G3 G E2 | F F2 A GF | E2 G2 AG/A/ | c6 |] %16

